X:38
T:Portmouth Review THO4.038
M:C
L:1/8
Z:vmp. Peter Dunk 2010/11.from a transcription by Fynn Titford-Mock 2007
B:Thompson's Compleat Collection of 200 Favourite Country Dances Volume IV.
Q:1/4=140
K:D
A|d2 AF GEcA|Bgec d/c/d/e/ dA|d2 AF GEcA|cBA^G A3:|
|:A|e2 cA eAfA|ga {g/}fe/d/ e/d/c/B/ A>A|e2cA Bbag|fe/d/ ed/c/ d3:|
